**kern	**kern
*staff2	*staff1
*clefF4	*clefG2
*k[]	*k[]
*M3/4	*M3/4
*C:	*C:
=-	=-
4r	12dL
.	12b
.	12ddJ
=76	=76
4B	12dL
.	12g
.	12ddJ
4r	12ddL
.	12gg
.	12dddJ
4B	12r
.	12gL
.	12ddJ
=77	=77
4A	12eL
.	12g
.	12ccJ
4r	12ccL
.	12gg
.	12cccJ
4A	12r
.	12gL
.	12ccJ
=78	=78
4D	12f#L
.	12a
.	12ccJ
4r	12ddL
.	12ff#
.	12aaJ
4r	12cccL
.	12bb
.	12aaJ
=79	=79
2r	12ggL
.	12ff#
.	12eeJ
.	12ddL
.	12cc#
.	12eeJ
(4F#	12ddL
.	12ee
.	12ccJ
=80	=80
4G)	12bL
.	12dd
.	12ccJ
4r	12bL
.	12a
.	12gJ
(4BB	12f#L
.	12e
.	12dJ
=81	=81
4C)	12cL
.	12e
.	12dJ
*	*clefF4
4r	12cL
.	12B
.	12AJ
(4CC	12GL
.	12F#
.	12EJ
=82	=82
4DD)	12DL
.	12G
.	12BJ
4D	12dL
.	12B
.	12GJ
4D	12cL
.	12A
.	12F#J
=83	=83
4GG	12r
.	12GL
.	12BJ
*	*clefG2
4r	12dL
.	12g
.	12bJ
=	=
*-	*-
